X: 4
T: &quot;~ song ~&quot; ~ 
M: 3/4
L: 1/8
R: song
K: A Dorian
|: cA A^G A2 | cA Ac B/c/d | cA A^G A2 | BG- Gc B/c/d |
Aa a^g a2 | Aa- ab c'a | Aa a/g/f g2 | [M:4/4] dB Gd eB- B2 :|
